48x48/apps/gnome-layout-switcher.svg

<svg xmlns="http://www.w3.org/2000/svg" width="48" height="48" version="1.1">
 <circle style="opacity:0.2" cx="24" cy="25" r="20"/>
 <circle style="fill:#35454c" cx="24" cy="24" r="20"/>
 <path style="opacity:0.2" d="m 34.527344,13.99917 a 1.0000627,1.0000627 0 0 0 -0.763672,0.324219 l -5.054688,5.515625 C 27.463214,18.70073 25.812813,17.99917 24,17.99917 c -3.854145,3e-6 -6.999999,3.145855 -7,7 1e-6,1.304838 0.367579,2.524384 0.994141,3.572266 L 13.503906,32.65542 9.6757812,29.251123 a 1.0009252,1.0009252 0 1 0 -1.3300781,1.496094 l 4.4999999,4 a 1.0000627,1.0000627 0 0 0 1.337891,-0.0078 l 5.072265,-4.611328 c 1.249623,1.157115 2.914504,1.871093 4.744141,1.871094 3.854146,0 6.999996,-3.145854 7,-7 0,-1.316437 -0.374826,-2.545574 -1.011719,-3.599609 l 4.582031,-4.998047 3.753907,3.34375 a 1.0000627,1.0000627 0 1 0 1.330078,-1.492188 l -4.488281,-4 A 1.0000627,1.0000627 0 0 0 34.527344,13.99917 Z M 24,19.99917 c 2.773141,0 4.999999,2.226859 5,5 -3e-6,2.77314 -2.22686,5 -5,5 -2.773138,-2e-6 -4.999997,-2.226862 -5,-5 1e-6,-2.773139 2.226861,-4.999998 5,-5 z"/>
 <path style="opacity:0.1;fill:#f4f4f7" d="M 24,4 A 20,20 0 0 0 4,24 20,20 0 0 0 4.0215,24.582 20,20 0 0 1 24,5 20,20 0 0 1 43.979,24.418 20,20 0 0 0 44,24 20,20 0 0 0 24,4 Z"/>
 <path style="fill:none;stroke:#16a085;stroke-width:1.99992549;stroke-linecap:round;stroke-linejoin:round" d="m 29,20 5.5,-6 4.489237,4"/>
 <path style="fill:none;stroke:#16a085;stroke-width:1.99992549;stroke-linecap:round;stroke-linejoin:round" d="m 19.010633,28 -5.5,5 -4.5000004,-4"/>
 <path style="fill:none;stroke:#16a085;stroke-width:2.00023341;stroke-linecap:round;stroke-linejoin:round" d="m 29.999883,24.000002 a 5.9998853,5.9998853 0 0 1 -5.999886,5.999879 5.9998853,5.9998853 0 0 1 -5.99988,-5.999879 5.9998853,5.9998853 0 0 1 5.99988,-5.999883 5.9998853,5.9998853 0 0 1 5.999886,5.999883 z"/>
 <path style="opacity:0.2;fill:#f4f4f7" d="M 34.527344 13 A 1.0000627 1.0000627 0 0 0 33.763672 13.324219 L 28.708984 18.839844 C 27.463214 17.70156 25.812813 17 24 17 C 20.145855 17.000003 17.000001 20.145855 17 24 C 17 24.145857 17.020263 24.286083 17.029297 24.429688 C 17.321614 20.840588 20.33803 18.000003 24 18 C 25.812813 18 27.463214 18.70156 28.708984 19.839844 L 33.763672 14.324219 A 1.0000627 1.0000627 0 0 1 34.527344 14 A 1.0000627 1.0000627 0 0 1 35.166016 14.253906 L 39.654297 18.253906 A 1.0000627 1.0000627 0 0 1 39.880859 18.523438 A 1.0000627 1.0000627 0 0 0 39.654297 17.253906 L 35.166016 13.253906 A 1.0000627 1.0000627 0 0 0 34.527344 13 z M 30.320312 21.039062 L 29.988281 21.400391 C 30.555342 22.338855 30.898727 23.420108 30.970703 24.574219 C 30.986336 24.384103 31 24.194017 31 24 C 31 22.939157 30.748118 21.940576 30.320312 21.039062 z M 19.025391 24.5 C 19.009283 24.664297 19 24.831281 19 25 C 19.000003 27.773138 21.226862 29.999998 24 30 C 26.77314 30 28.999997 27.77314 29 25 C 29 24.831281 28.990717 24.664297 28.974609 24.5 C 28.725968 27.036151 26.604421 29 24 29 C 21.395581 28.999998 19.274032 27.036149 19.025391 24.5 z M 17.644531 27.890625 L 13.503906 31.65625 L 9.6757812 28.251953 A 1.0009252 1.0009252 0 0 0 8.1445312 29.5 A 1.0009252 1.0009252 0 0 1 9.6757812 29.251953 L 13.503906 32.65625 L 17.994141 28.572266 C 17.863682 28.354082 17.751555 28.122914 17.644531 27.890625 z"/>
</svg>

<svg xmlns="http://www.w3.org/2000/svg" width="48" height="48"><circle style="opacity:.2" cx="24" cy="25" r="20"/><circle style="fill:#35454c" cx="24" cy="24" r="20"/><path style="opacity:.2" d="M34.527 14a1 1 0 0 0-.763.323l-5.055 5.516A6.962 6.962 0 0 0 24 17.999c-3.854 0-7 3.146-7 7a6.94 6.94 0 0 0 .994 3.572l-4.49 4.084-3.828-3.404a1 1 0 1 0-1.33 1.496l4.5 4a1 1 0 0 0 1.338-.008l5.072-4.61A6.964 6.964 0 0 0 24 31.998c3.854 0 7-3.146 7-7a6.938 6.938 0 0 0-1.012-3.6l4.582-4.997 3.754 3.343a1 1 0 1 0 1.33-1.492l-4.488-4a1 1 0 0 0-.639-.254zM24 20c2.773 0 5 2.226 5 5 0 2.772-2.227 5-5 5s-5-2.228-5-5c0-2.774 2.227-5 5-5z"/><path style="opacity:.1;fill:#f4f4f7" d="M24 4A20 20 0 0 0 4 24a20 20 0 0 0 .021.582A20 20 0 0 1 24 5a20 20 0 0 1 19.979 19.418A20 20 0 0 0 44 24 20 20 0 0 0 24 4z"/><path style="fill:none;stroke:#16a085;stroke-width:1.99992549;stroke-linecap:round;stroke-linejoin:round" d="m29 20 5.5-6 4.49 4M19.01 28l-5.5 5-4.5-4"/><path style="fill:none;stroke:#16a085;stroke-width:2.00023341;stroke-linecap:round;stroke-linejoin:round" d="M30 24a6 6 0 0 1-6 6 6 6 0 0 1-6-6 6 6 0 0 1 6-6 6 6 0 0 1 6 6z"/><path style="opacity:.2;fill:#f4f4f7" d="M34.527 13a1 1 0 0 0-.763.324l-5.055 5.516A6.962 6.962 0 0 0 24 17c-3.854 0-7 3.146-7 7 0 .146.02.286.03.43C17.321 20.84 20.337 18 24 18c1.813 0 3.463.702 4.709 1.84l5.055-5.516a1 1 0 0 1 .763-.324 1 1 0 0 1 .639.254l4.488 4a1 1 0 0 1 .227.27 1 1 0 0 0-.227-1.27l-4.488-4a1 1 0 0 0-.639-.254zm-4.207 8.04-.332.36c.567.939.91 2.02.983 3.174.015-.19.029-.38.029-.574a6.88 6.88 0 0 0-.68-2.96zM19.025 24.5A4.985 4.985 0 0 0 24 30a4.985 4.985 0 0 0 4.975-5.5A4.982 4.982 0 0 1 24 29a4.982 4.982 0 0 1-4.975-4.5zm-1.38 3.39-4.141 3.766-3.828-3.404A1 1 0 0 0 8.145 29.5a1 1 0 0 1 1.53-.248l3.829 3.404 4.49-4.084a7.173 7.173 0 0 1-.35-.681z"/></svg>
